svg/color/aka.svg

<?xml version="1.0" encoding="UTF-8" ?>
<!DOCTYPE svg PUBLIC "-//W3C//DTD SVG 1.1//EN" "http://www.w3.org/Graphics/SVG/1.1/DTD/svg11.dtd">
<svg width="250pt" height="250pt" viewBox="0 0 250 250" version="1.1" xmlns="http://www.w3.org/2000/svg">
<g id="#ffffffff">
<path fill="#ffffff" opacity="1.00" d=" M 0.00 0.00 L 250.00 0.00 L 250.00 250.00 L 0.00 250.00 L 0.00 0.00 M 2.51 12.44 C 1.58 13.82 2.15 15.48 2.31 16.98 C 9.87 58.66 17.25 100.37 24.71 142.07 C 29.07 165.57 32.85 189.17 37.49 212.61 L 37.17 212.94 C 103.36 225.04 169.70 236.37 235.92 248.34 C 236.95 248.35 238.19 248.86 239.10 248.18 C 242.34 245.87 244.91 242.78 247.54 239.83 C 242.01 238.26 236.31 237.52 230.69 236.41 C 169.46 224.81 108.16 213.54 46.95 201.82 C 34.58 135.13 22.33 68.41 9.73 1.77 C 7.12 5.19 4.60 8.69 2.51 12.44 M 30.07 19.99 C 30.52 22.64 31.04 25.28 31.56 27.92 C 42.23 80.81 52.86 133.72 63.49 186.62 C 115.84 197.27 168.19 207.92 220.60 218.31 L 220.64 218.48 C 223.76 219.05 226.89 219.62 230.03 220.14 C 225.97 208.38 221.33 196.83 217.24 185.07 C 176.21 175.25 135.10 165.76 94.01 156.16 C 84.56 114.84 74.79 73.59 65.28 32.28 L 65.16 32.38 C 53.52 28.11 41.80 24.02 30.07 19.99 M 86.10 39.81 C 86.60 42.39 87.22 44.95 87.78 47.52 L 88.00 47.58 C 94.80 77.16 102.25 106.59 109.20 136.14 C 109.71 137.82 109.69 140.36 112.07 140.37 C 142.48 148.08 172.92 155.68 203.34 163.37 C 205.33 163.85 207.32 164.32 209.32 164.77 C 205.56 154.16 201.94 143.50 198.11 132.91 C 176.73 127.23 155.35 121.53 133.92 116.02 C 127.43 93.92 121.26 71.72 114.41 49.74 C 104.90 46.64 95.57 43.03 86.10 39.81 M 134.87 57.02 C 135.37 59.17 135.48 61.60 136.56 63.51 C 140.07 76.80 143.73 90.06 147.53 103.26 C 159.53 106.26 171.40 109.76 183.44 112.64 L 183.50 112.84 C 186.00 113.46 188.49 114.15 190.98 114.81 C 185.82 100.18 180.89 85.46 175.33 70.98 C 161.75 66.62 148.41 61.51 134.87 57.02 Z" />
</g>
<g id="#ccccccff">
<path fill="#cccccc" opacity="1.00" d=" M 2.51 12.44 C 4.60 8.69 7.12 5.19 9.73 1.77 C 22.33 68.41 34.58 135.13 46.95 201.82 C 43.97 205.56 40.90 209.24 37.49 212.61 C 32.85 189.17 29.07 165.57 24.71 142.07 C 17.25 100.37 9.87 58.66 2.31 16.98 C 2.15 15.48 1.58 13.82 2.51 12.44 Z" />
</g>
<g id="#c2009dff">
<path fill="#c2009d" opacity="1.00" d=" M 30.07 19.99 C 41.80 24.02 53.52 28.11 65.16 32.38 C 63.36 34.02 61.55 35.65 59.73 37.26 C 50.25 34.43 40.95 31.04 31.56 27.92 C 31.04 25.28 30.52 22.64 30.07 19.99 Z" />
<path fill="#c2009d" opacity="1.00" d=" M 86.70 163.45 C 89.17 161.06 91.61 158.63 94.01 156.16 C 135.10 165.76 176.21 175.25 217.24 185.07 C 215.56 187.74 213.84 190.39 212.13 193.04 C 170.32 183.16 128.52 173.26 86.70 163.45 Z" />
</g>
<g id="#aa0087ff">
<path fill="#aa0087" opacity="1.00" d=" M 31.56 27.92 C 40.95 31.04 50.25 34.43 59.73 37.26 C 60.46 42.29 61.57 47.25 62.71 52.20 C 70.86 89.25 78.50 126.41 86.70 163.45 C 128.52 173.26 170.32 183.16 212.13 193.04 C 214.89 201.49 218.60 209.63 220.60 218.31 C 168.19 207.92 115.84 197.27 63.49 186.62 C 52.86 133.72 42.23 80.81 31.56 27.92 Z" />
</g>
<g id="#930077ff">
<path fill="#930077" opacity="1.00" d=" M 65.16 32.38 L 65.28 32.28 C 74.79 73.59 84.56 114.84 94.01 156.16 C 91.61 158.63 89.17 161.06 86.70 163.45 C 78.50 126.41 70.86 89.25 62.71 52.20 C 61.57 47.25 60.46 42.29 59.73 37.26 C 61.55 35.65 63.36 34.02 65.16 32.38 Z" />
<path fill="#930077" opacity="1.00" d=" M 212.13 193.04 C 213.84 190.39 215.56 187.74 217.24 185.07 C 221.33 196.83 225.97 208.38 230.03 220.14 C 226.89 219.62 223.76 219.05 220.64 218.48 L 220.60 218.31 C 218.60 209.63 214.89 201.49 212.13 193.04 Z" />
</g>
<g id="#cf0000ff">
<path fill="#cf0000" opacity="1.00" d=" M 86.10 39.81 C 95.57 43.03 104.90 46.64 114.41 49.74 C 113.18 51.67 111.99 53.61 110.80 55.57 C 103.46 52.23 95.83 49.51 88.00 47.58 L 87.78 47.52 C 87.22 44.95 86.60 42.39 86.10 39.81 Z" />
<path fill="#cf0000" opacity="1.00" d=" M 133.92 116.02 C 155.35 121.53 176.73 127.23 198.11 132.91 C 196.95 134.75 195.78 136.58 194.58 138.39 C 188.57 135.91 182.12 134.92 175.89 133.21 C 160.42 129.20 144.90 125.39 129.48 121.21 C 130.96 119.48 132.44 117.75 133.92 116.02 Z" />
</g>
<g id="#f10000ff">
<path fill="#f10000" opacity="1.00" d=" M 88.00 47.58 C 95.83 49.51 103.46 52.23 110.80 55.57 C 115.54 72.67 120.28 89.78 125.10 106.86 C 126.49 111.67 127.37 116.65 129.48 121.21 C 144.90 125.39 160.42 129.20 175.89 133.21 C 182.12 134.92 188.57 135.91 194.58 138.39 C 197.57 146.69 200.68 154.96 203.34 163.37 C 172.92 155.68 142.48 148.08 112.07 140.37 C 109.69 140.36 109.71 137.82 109.20 136.14 C 102.25 106.59 94.80 77.16 88.00 47.58 Z" />
</g>
<g id="#af0000ff">
<path fill="#af0000" opacity="1.00" d=" M 114.41 49.74 C 121.26 71.72 127.43 93.92 133.92 116.02 C 132.44 117.75 130.96 119.48 129.48 121.21 C 127.37 116.65 126.49 111.67 125.10 106.86 C 120.28 89.78 115.54 72.67 110.80 55.57 C 111.99 53.61 113.18 51.67 114.41 49.74 Z" />
<path fill="#af0000" opacity="1.00" d=" M 194.58 138.39 C 195.78 136.58 196.95 134.75 198.11 132.91 C 201.94 143.50 205.56 154.16 209.32 164.77 C 207.32 164.32 205.33 163.85 203.34 163.37 C 200.68 154.96 197.57 146.69 194.58 138.39 Z" />
</g>
<g id="#f17100ff">
<path fill="#f17100" opacity="1.00" d=" M 134.87 57.02 C 148.41 61.51 161.75 66.62 175.33 70.98 C 173.57 72.62 171.91 74.40 170.68 76.48 C 169.03 75.34 167.27 74.35 165.39 73.66 C 155.77 70.31 146.21 66.78 136.56 63.51 C 135.48 61.60 135.37 59.17 134.87 57.02 Z" />
</g>
<g id="#ffa600ff">
<path fill="#ffa600" opacity="1.00" d=" M 136.56 63.51 C 146.21 66.78 155.77 70.31 165.39 73.66 C 167.27 74.35 169.03 75.34 170.68 76.48 C 174.89 88.55 179.41 100.51 183.44 112.64 C 171.40 109.76 159.53 106.26 147.53 103.26 C 143.73 90.06 140.07 76.80 136.56 63.51 Z" />
</g>
<g id="#e25d00ff">
<path fill="#e25d00" opacity="1.00" d=" M 170.68 76.48 C 171.91 74.40 173.57 72.62 175.33 70.98 C 180.89 85.46 185.82 100.18 190.98 114.81 C 188.49 114.15 186.00 113.46 183.50 112.84 L 183.44 112.64 C 179.41 100.51 174.89 88.55 170.68 76.48 Z" />
</g>
<g id="#e6e6e6ff">
<path fill="#e6e6e6" opacity="1.00" d=" M 37.49 212.61 C 40.90 209.24 43.97 205.56 46.95 201.82 C 108.16 213.54 169.46 224.81 230.69 236.41 C 236.31 237.52 242.01 238.26 247.54 239.83 C 244.91 242.78 242.34 245.87 239.10 248.18 C 238.19 248.86 236.95 248.35 235.92 248.34 C 169.70 236.37 103.36 225.04 37.17 212.94 L 37.49 212.61 Z" />
</g>
</svg>

<?xml version="1.0" encoding="utf-8"?>
<!-- Generator: Adobe Illustrator 26.0.3, SVG Export Plug-In . SVG Version: 6.00 Build 0)  -->
<svg version="1.1" id="Layer_1" xmlns="http://www.w3.org/2000/svg" xmlns:xlink="http://www.w3.org/1999/xlink" x="0px" y="0px"
	 viewBox="0 0 250 250" style="enable-background:new 0 0 250 250;" xml:space="preserve">
<style type="text/css">
	.st0{fill:#CCCCCC;}
	.st1{fill:#C2009D;}
	.st2{fill:#AA0087;}
	.st3{fill:#930077;}
	.st4{fill:#CF0000;}
	.st5{fill:#F10000;}
	.st6{fill:#AF0000;}
	.st7{fill:#F17100;}
	.st8{fill:#FFA600;}
	.st9{fill:#E25D00;}
	.st10{fill:#E6E6E6;}
</style>
<g id="_x23_ccccccff">
	<path class="st0" d="M2.5,12.4C4.6,8.7,7.1,5.2,9.7,1.8C22.3,68.4,34.6,135.1,47,201.8c-3,3.7-6,7.4-9.5,10.8
		c-4.6-23.4-8.4-47-12.8-70.5C17.2,100.4,9.9,58.7,2.3,17C2.2,15.5,1.6,13.8,2.5,12.4z"/>
</g>
<g id="_x23_c2009dff">
	<path class="st1" d="M30.1,20c11.7,4,23.5,8.1,35.1,12.4c-1.8,1.6-3.6,3.3-5.4,4.9C50.2,34.4,41,31,31.6,27.9
		C31,25.3,30.5,22.6,30.1,20z"/>
	<path class="st1" d="M86.7,163.4c2.5-2.4,4.9-4.8,7.3-7.3c41.1,9.6,82.2,19.1,123.2,28.9c-1.7,2.7-3.4,5.3-5.1,8
		C170.3,183.2,128.5,173.3,86.7,163.4z"/>
</g>
<g id="_x23_aa0087ff">
	<path class="st2" d="M31.6,27.9c9.4,3.1,18.7,6.5,28.2,9.3c0.7,5,1.8,10,3,14.9c8.2,37,15.8,74.2,24,111.2
		c41.8,9.8,83.6,19.7,125.4,29.6c2.8,8.5,6.5,16.6,8.5,25.3c-52.4-10.4-104.8-21-157.1-31.7C52.9,133.7,42.2,80.8,31.6,27.9z"/>
</g>
<g id="_x23_930077ff">
	<path class="st3" d="M65.2,32.4l0.1-0.1c9.5,41.3,19.3,82.6,28.7,123.9c-2.4,2.5-4.8,4.9-7.3,7.3c-8.2-37-15.8-74.2-24-111.2
		c-1.1-5-2.2-9.9-3-14.9C61.5,35.7,63.4,34,65.2,32.4z"/>
	<path class="st3" d="M212.1,193c1.7-2.6,3.4-5.3,5.1-8c4.1,11.8,8.7,23.3,12.8,35.1c-3.1-0.5-6.3-1.1-9.4-1.7l0-0.2
		C218.6,209.6,214.9,201.5,212.1,193z"/>
</g>
<g id="_x23_cf0000ff">
	<path class="st4" d="M86.1,39.8c9.5,3.2,18.8,6.8,28.3,9.9c-1.2,1.9-2.4,3.9-3.6,5.8c-7.3-3.3-15-6.1-22.8-8l-0.2-0.1
		C87.2,45,86.6,42.4,86.1,39.8z"/>
	<path class="st4" d="M133.9,116c21.4,5.5,42.8,11.2,64.2,16.9c-1.2,1.8-2.3,3.7-3.5,5.5c-6-2.5-12.5-3.5-18.7-5.2
		c-15.5-4-31-7.8-46.4-12C131,119.5,132.4,117.8,133.9,116z"/>
</g>
<g id="_x23_f10000ff">
	<path class="st5" d="M88,47.6c7.8,1.9,15.5,4.6,22.8,8c4.7,17.1,9.5,34.2,14.3,51.3c1.4,4.8,2.3,9.8,4.4,14.3
		c15.4,4.2,30.9,8,46.4,12c6.2,1.7,12.7,2.7,18.7,5.2c3,8.3,6.1,16.6,8.8,25c-30.4-7.7-60.9-15.3-91.3-23c-2.4,0-2.4-2.5-2.9-4.2
		C102.2,106.6,94.8,77.2,88,47.6z"/>
</g>
<g id="_x23_af0000ff">
	<path class="st6" d="M114.4,49.7c6.8,22,13,44.2,19.5,66.3c-1.5,1.7-3,3.5-4.4,5.2c-2.1-4.6-3-9.5-4.4-14.3
		c-4.8-17.1-9.6-34.2-14.3-51.3C112,53.6,113.2,51.7,114.4,49.7z"/>
	<path class="st6" d="M194.6,138.4c1.2-1.8,2.4-3.6,3.5-5.5c3.8,10.6,7.4,21.2,11.2,31.9c-2-0.4-4-0.9-6-1.4
		C200.7,155,197.6,146.7,194.6,138.4z"/>
</g>
<g id="_x23_f17100ff">
	<path class="st7" d="M134.9,57c13.5,4.5,26.9,9.6,40.5,14c-1.8,1.6-3.4,3.4-4.7,5.5c-1.6-1.1-3.4-2.1-5.3-2.8
		c-9.6-3.4-19.2-6.9-28.8-10.2C135.5,61.6,135.4,59.2,134.9,57z"/>
</g>
<g id="_x23_ffa600ff">
	<path class="st8" d="M136.6,63.5c9.7,3.3,19.2,6.8,28.8,10.2c1.9,0.7,3.6,1.7,5.3,2.8c4.2,12.1,8.7,24,12.8,36.2
		c-12-2.9-23.9-6.4-35.9-9.4C143.7,90.1,140.1,76.8,136.6,63.5z"/>
</g>
<g id="_x23_e25d00ff">
	<path class="st9" d="M170.7,76.5c1.2-2.1,2.9-3.9,4.7-5.5c5.6,14.5,10.5,29.2,15.6,43.8c-2.5-0.7-5-1.3-7.5-2l-0.1-0.2
		C179.4,100.5,174.9,88.6,170.7,76.5z"/>
</g>
<g id="_x23_e6e6e6ff">
	<path class="st10" d="M37.5,212.6c3.4-3.4,6.5-7.1,9.5-10.8c61.2,11.7,122.5,23,183.7,34.6c5.6,1.1,11.3,1.8,16.8,3.4
		c-2.6,2.9-5.2,6-8.4,8.3c-0.9,0.7-2.2,0.2-3.2,0.2c-66.2-12-132.6-23.3-198.8-35.4L37.5,212.6z"/>
</g>
</svg>
